X:1     
T:O Good Ale Thou art my Darling  
B:Sabine Baring Gould, 1895, Old English Songs from English Minstrelsie, 1895
F: http://www.folkinfo.org/songs
L:1/8     %
K:G
B,2 |E2 (EF) G2 (FE) |A2 A2 A2 GF |E2 (EF) G2 FE |B2 B2 B2
w:The land-lord_ he looks_ ve-ry big, With his high cock'd_ hat and his pow-der'd wig; 
 B2 |B2 (Bc) d2 d2 |B2 (Bc) d2 ^d2 |e2 B2 c2 BA | B2 (AG) A2 
w:Me-thinks he_ looks both fair and_ fat But he may thank you and me for_ that, 
GF |E3 F G3 A |(Bc) (BA) G2 E2 |e3 B c2 (BA) | G2 F2 G2 E2 |]
w:For 'tis O good ale, thou art_ my_ dar-ling And my joy both_ night and morn-ing. 